!!!COM: Anon.
!!!OTL: Amigo vou lhe contar
!!!OTL: Romanceiro Folclorico do Brasil
!!!CNT: Brasil
!!!OCY: Brasil
!!!ODT: <1971///
!!!PSR: Irmaos Vitale
!!!PSP: Sao Paulo, Brasil
!!!PDT: 1948///
!!!PPE: Rossini Tavares de Lima
!!!PPG: page 66
!! Romance: Donzela
!! Place: Tubarao, Santa Catarina, Brasil
**kern
*clefG2
*k[]
*M3/4
*MM110
=1-
4g
4g
4g
=
4g
4b
4a
=
2.f
=
2.d
=
4g
4g
4g
=
4g
4g
4f
=
2.e
=
2.c
=
4c
4e
4g
=
4b
4dd
4cc
=
2.f
=
2.a
=
4g
4b
4g
=
4d
4f
4e
=
2.c
=
2.c
==
*-
